!!!COM: Music21
!!!OTL: jig_Broken-Compass--The
!!!OMV: jig_Broken-Compass--The
**kern
*clefG2
*k[f#]
*M6/8
=1
4.A
8BL
8G
8BJ
=
8AL
8c
8AJ
8dL
8e
8gJ
=
8aL
8g
8eJ
8dL
8c
8dJ
=
4.e
8dL
8c
8BJ
=
4.A
8BL
8G
8BJ
=
8AL
8c
8AJ
8dL
8e
8gJ
!!linebreak:original
=
8aL
8g
8eJ
8dL
8B
8GJ
=
8BL
8A
8GJ
4A
8G
=||
*M6/8
4.A
8BL
8G
8BJ
=
8AL
8c
8AJ
8dL
8e
8gJ
=
8aL
8g
8eJ
8dL
8c
8dJ
=
4.e
8dL
8c
8BJ
!!linebreak:original
=
4.A
8BL
8G
8BJ
=
8AL
8c
8AJ
8dL
8e
8gJ
=
8aL
8g
8eJ
8gL
8a
8bJ
=
8ddL
8cc
8bJ
4a
8a
=||
4.b
8gL
8e
8dJ
=
8eL
8d
8BJ
8dL
8e
8gJ
=
8aL
8g
8eJ
8gL
8b
8ddJ
!!linebreak:original
=
8ccL
8b
8aJ
8aL
8g
8aJ
=
4.b
8gL
8e
8dJ
=
8eL
8d
8BJ
8dL
8e
8gJ
=
8aL
8g
8eJ
8gL
8b
8ddJ
=
8ddL
8cc
8bJ
4a
8a
=
4.b
8gL
8e
8dJ
=
8eL
8d
8BJ
8dL
8e
8gJ
!!linebreak:original
=
8aL
8g
8eJ
8gL
8b
8ddJ
=
8eeL
8dd
8bJ
8ddL
8ee
8ff#J
=
4.gg
8eeL
8aa
8ff#J
=
8ggL
8bb
8aaJ
8ggL
8aa
8bbJ
=
8bbL
8aa
8ggJ
8ggL
8ff#
8eeJ
=
8ddL
8cc
8bJ
8aL
8e
8cJ
=||
*-
